build/img/icon-binance.svg

<svg width="20" height="20" viewBox="0 0 20 20" fill="none" xmlns="http://www.w3.org/2000/svg">
<g clip-path="url(#clip0_314_532)">
<path d="M6.02965 8.40417L9.91367 4.5203L13.7997 8.40622L16.0597 6.14623L9.91367 0L3.76965 6.14417L6.02965 8.40417Z" fill="#F3BA2F"/>
<path d="M4.43366 9.99964L2.17371 7.73969L-0.0863589 9.99975L2.17359 12.2597L4.43366 9.99964Z" fill="#F3BA2F"/>
<path d="M6.02967 11.5958L9.91369 15.4797L13.7996 11.5939L16.0609 13.8527L16.0598 13.8539L9.91369 20L3.76952 13.856L3.76636 13.8528L6.02967 11.5958Z" fill="#F3BA2F"/>
<path d="M17.6539 12.2608L19.9139 10.0007L17.654 7.74076L15.3939 10.0008L17.6539 12.2608Z" fill="#F3BA2F"/>
<path d="M12.2061 9.99881H12.207L9.91369 7.70549L8.21889 9.40029H8.21874L8.02412 9.59506L7.62242 9.99676L7.61926 9.99992L7.62242 10.0032L9.91369 12.2945L12.207 10.0012L12.2081 9.99992L12.2061 9.99881Z" fill="#F3BA2F"/>
</g>
<defs>
<clipPath id="clip0_314_532">
<rect width="20" height="20" fill="white"/>
</clipPath>
</defs>
</svg>

<svg width="20" height="20" fill="none" xmlns="http://www.w3.org/2000/svg"><g clip-path="url(#clip0_314_532)" fill="#F3BA2F"><path d="M6.03 8.404L9.914 4.52 13.8 8.406l2.26-2.26L9.914 0 3.77 6.144l2.26 2.26zM4.434 10l-2.26-2.26L-.086 10l2.26 2.26L4.434 10zm1.596 1.596l3.884 3.884 3.886-3.886 2.26 2.259L9.914 20 3.77 13.856l-.004-.003 2.264-2.257zm11.624.664l2.26-2.26-2.26-2.26-2.26 2.26 2.26 2.26z"/><path d="M12.206 9.999h.001L9.914 7.705 8.219 9.4l-.195.195-.402.402L7.62 10l.003.003 2.292 2.291 2.293-2.293.001-.001-.002-.001z"/></g><defs><clipPath id="clip0_314_532"><path fill="#fff" d="M0 0h20v20H0z"/></clipPath></defs></svg>
